src/assets/icons/scheduled.svg

<svg width="24" height="24" viewBox="0 0 24 24" fill="none" xmlns="http://www.w3.org/2000/svg">
  <path d="M3.6 9.7H19.6" stroke="#314158" stroke-width="1.5"/>
  <path d="M17.1 3.7C17.7312 3.7 18.2429 4.20535 18.2429 4.82875V9.24401C18.4714 9.32742 19.0657 9.58453 19.6143 9.94573V4.82875C19.6143 3.45729 18.4886 2.3455 17.1 2.3455H6.12857C4.73996 2.3455 3.61429 3.45729 3.61429 4.82875V14.8623L3.62768 15.1162C3.75658 16.3683 4.82686 17.3455 6.12857 17.3455H12.0714C11.7057 17.1249 11.3095 16.3506 11.1571 15.991H6.12857C5.53695 15.991 5.05064 15.5468 4.99196 14.9778L4.98571 14.8623V4.82875C4.98571 4.20536 5.49738 3.7 6.12857 3.7H17.1Z" fill="#314158"/>
  <path d="M15.4 3.7V7.2" stroke="#314158" stroke-width="1.5" stroke-linecap="round"/>
  <path d="M9.4 3.7V7.2" stroke="#314158" stroke-width="1.5" stroke-linecap="round"/>
  <path d="M17.7 13.7C18.6946 13.7 19.6481 14.0954 20.3514 14.7986C21.0546 15.5019 21.45 16.4554 21.45 17.45C21.45 18.4446 21.0546 19.3981 20.3514 20.1014C19.6481 20.8046 18.6946 21.2 17.7 21.2C16.7054 21.2 15.7519 20.8046 15.0486 20.1014C14.3454 19.3981 13.95 18.4446 13.95 17.45C13.95 16.4554 14.3454 15.5019 15.0486 14.7986C15.7519 14.0954 16.7054 13.7 17.7 13.7Z" stroke="#314158" stroke-width="1.5" stroke-linecap="round" stroke-linejoin="round"/>
  <path d="M18.95 19.7L17.95 19.1167V17.7" stroke="#314158" stroke-width="1.5" stroke-linecap="round" stroke-linejoin="round"/>
</svg>

<svg fill="none" viewBox="0 0 24 24"><path stroke="currentColor" stroke-width="1.5" d="M3.6 9.7h16"/><path fill="currentColor" d="M17.1 3.7c.631 0 1.143.505 1.143 1.129v4.415c.228.083.823.34 1.371.702V4.829c0-1.372-1.125-2.483-2.514-2.483H6.129c-1.389 0-2.515 1.111-2.515 2.483v10.033l.014.254c.129 1.252 1.199 2.23 2.5 2.23h5.943c-.365-.221-.761-.995-.914-1.355H6.13a1.14 1.14 0 0 1-1.137-1.013l-.006-.116V4.83c0-.624.511-1.129 1.143-1.129z"/><path stroke="currentColor" stroke-linecap="round" stroke-width="1.5" d="M15.4 3.7v3.5M9.4 3.7v3.5"/><path stroke="currentColor" stroke-linecap="round" stroke-linejoin="round" stroke-width="1.5" d="M17.7 13.7a3.75 3.75 0 1 1 0 7.5 3.75 3.75 0 0 1 0-7.5"/><path stroke="currentColor" stroke-linecap="round" stroke-linejoin="round" stroke-width="1.5" d="m18.95 19.7-1-.583V17.7"/></svg>
